resources/icons/16px/cloud-tick.svg

<svg width="16" height="16" viewBox="0 0 16 16" fill="none" xmlns="http://www.w3.org/2000/svg">
<path d="M11.9 4.01C11.93 4 11.97 4 12 4C13.9147 4 15.5141 5.3436 15.9074 7.13987C14.8738 6.81292 13.6982 7.05918 12.8787 7.87868L10 10.7574L9.12132 9.87868C7.94975 8.70711 6.05025 8.70711 4.87868 9.87868C4.29289 10.4645 4 11.2322 4 12H3.5C1.57 12 0 10.43 0 8.5C0 7.1 0.83 5.89 2.02 5.33C2.01 5.22 2 5.11 2 5C2 2.24 4.24 0 7 0C9.42 0 11.44 1.72 11.9 4.01Z" fill="black"/>
<path d="M15.7647 9.35552C16.0966 9.74842 16.0774 10.3368 15.7071 10.7071L10.7071 15.7071C10.3166 16.0976 9.68342 16.0976 9.29289 15.7071L6.29289 12.7071C5.93493 12.3491 5.90509 11.7873 6.20335 11.3954C6.23048 11.3597 6.26033 11.3255 6.29289 11.2929C6.68342 10.9024 7.31658 10.9024 7.70711 11.2929L10 13.5858L14.2926 9.29322C14.6831 8.9027 15.3166 8.90237 15.7071 9.29289C15.7274 9.31314 15.7465 9.33404 15.7647 9.35552Z" fill="black"/>
</svg>

<svg xmlns="http://www.w3.org/2000/svg" viewBox="0 0 16 16">
  <path d="M11.9 4.01c.03-.01.07-.01.1-.01a4 4 0 0 1 3.907 3.14 3 3 0 0 0-3.028.739L10 10.757l-.879-.878A3 3 0 0 0 4 12h-.5C1.57 12 0 10.43 0 8.5c0-1.4.83-2.61 2.02-3.17C2.01 5.22 2 5.11 2 5a5 5 0 0 1 9.9-.99"/>
  <path d="M15.765 9.356a1 1 0 0 1-.058 1.351l-5 5a1 1 0 0 1-1.414 0l-3-3a1 1 0 0 1 1.414-1.414L10 13.586l4.293-4.293a1 1 0 0 1 1.472.063"/>
</svg>
